li/education-cap.svg

<svg role="img" focusable="false" aria-hidden="true" xmlns="http://www.w3.org/2000/svg" viewBox="0 0 14 14" height="1em" width="1em">
  <path d="m 12.499079,12.25525 c 0.0968,0 0.188377,-0.0436 0.249339,-0.11884 0.06096,-0.0752 0.08473,-0.17385 0.06473,-0.26853 l -0.202146,-0.95662 c 0.115125,-0.11137 0.187491,-0.26686 0.187491,-0.43975 0,-0.182 -0.08106,-0.34343 -0.206876,-0.45558 l 0,-3.32202 -0.810333,0.50146 0,2.82056 c -0.125815,0.11215 -0.2069,0.27358 -0.2069,0.45558 0,0.17291 0.07239,0.32841 0.187515,0.43975 l -0.20217,0.95662 c -0.02,0.0947 0.0038,0.19335 0.06473,0.26853 0.06096,0.0752 0.152539,0.11884 0.249339,0.11884 l 0.625281,0 z M 12.773741,4.75539 7.5021019,1.49209 C 7.3477151,1.39699 7.1736728,1.34925 6.9996305,1.34925 c -0.1740423,0 -0.3482077,0.0477 -0.5016586,0.14284 l -5.271713,3.2633 C 1.0854931,4.84249 0.99999905,4.99633 0.99999905,5.1619 c 0,0.1656 0.085494,0.31949 0.22625985,0.40673 l 5.2716883,3.26333 c 0.153451,0.0952 0.3276163,0.14284 0.5016586,0.14284 0.1740423,0 0.3481092,-0.0477 0.5024714,-0.14284 L 12.773741,5.56863 c 0.140766,-0.0872 0.22626,-0.24113 0.22626,-0.40673 0,-0.16557 -0.08549,-0.31946 -0.22626,-0.40651 z M 6.9996059,9.78508 c -0.3283798,0 -0.6488777,-0.0912 -0.928242,-0.26411 l -3.0750017,-1.90368 0,3.27796 c 0,0.97016 1.7931578,1.7555 4.0032436,1.7555 2.2108742,0 4.0038842,-0.78536 4.0038842,-1.7555 l 0,-3.27796 -3.0748786,1.90368 C 7.6492472,9.69388 7.3279857,9.78508 6.9996059,9.78508 Z"/>
</svg>

<svg aria-hidden="true" xmlns="http://www.w3.org/2000/svg" viewBox="0 0 14 14" height="1em" width="1em">
  <path d="M12.5 12.255a.32.32 0 0 0 .313-.387l-.202-.957a.61.61 0 0 0-.02-.895V6.694l-.81.501v2.82a.609.609 0 0 0-.02.896l-.201.957a.321.321 0 0 0 .314.387h.625zm.274-7.5L7.502 1.492a.957.957 0 0 0-1.004 0L1.226 4.755a.478.478 0 0 0 0 .814l5.272 3.263a.951.951 0 0 0 1.004 0l5.272-3.263a.478.478 0 0 0 0-.814zM7 9.785a1.76 1.76 0 0 1-.929-.264L2.996 7.617v3.278c0 .97 1.794 1.756 4.004 1.756 2.21 0 4.003-.786 4.003-1.756V7.617L7.93 9.521c-.28.173-.601.264-.93.264Z"/>
</svg>
